X: 2064
T: Astley's Ride
R: polka
M: 2/4
K: Dmajor
|:a/f/|dd dc/d/|ee ef/e/|d/c/B/A/ Bc|d/e/f/g/ a/g/f/e/|
dd dc/d/|ee ef/e/|d/c/B/A/ Bc|d2 d:|
|:A|ff fe/f/|gg ga/g/|ee ed/e/|ff fa/f/|
dd dc/d/|ee ef/e/|d/c/B/A/ Bc|d2 d:|

